Sources/FrostedUI/Resources/Icons.xcassets/refund24.imageset/refund-24.svg

<svg width="24" height="24" viewBox="0 0 24 24" fill="none" xmlns="http://www.w3.org/2000/svg" data-fui-icon="true">
  <path
    d="M12.0957 1.25C6.85781 1.25 3.96049 4.42639 2.75 7.39453V5.22656C2.75 4.81235 2.41421 4.47656 2 4.47656C1.58579 4.47656 1.25 4.81235 1.25 5.22656V8.73047C1.25 9.77506 2.09056 10.6346 3.14258 10.6348H5.49219C5.90628 10.6347 6.24211 10.2989 6.24219 9.88477C6.24219 9.4706 5.90633 9.13485 5.49219 9.13477L3.75391 9.13477C4.4278 6.35553 6.90928 2.75 12.0957 2.75C17.7322 2.75023 21.25 6.98406 21.25 12C21.25 17.0159 17.7322 21.2498 12.0957 21.25C8.09581 21.25 4.91418 18.8643 3.6123 15.8682C3.44724 15.4883 3.00587 15.3135 2.62598 15.4785C2.24607 15.6436 2.07224 16.0859 2.2373 16.4658C3.77036 19.9938 7.48143 22.75 12.0957 22.75C18.6491 22.7498 22.75 17.753 22.75 12C22.75 6.24698 18.6491 1.25024 12.0957 1.25ZM12.0078 5.08594C11.5938 5.0862 11.2578 5.42189 11.2578 5.83594V6.43164C9.11662 6.70982 7.90654 8.16578 7.90625 9.57812C7.90625 10.1553 8.04021 10.6615 8.30957 11.0898C8.57691 11.5147 8.94748 11.8144 9.34375 12.0312C9.91443 12.3434 10.6078 12.5165 11.2578 12.6455V16.0977C10.664 15.9923 10.2655 15.7696 9.99609 15.5391C9.61303 15.211 9.43006 14.8192 9.35156 14.5801C9.22212 14.187 8.79758 13.9725 8.4043 14.1016C8.01155 14.231 7.79731 14.6548 7.92578 15.0479C8.06208 15.4631 8.37023 16.1218 9.02051 16.6787C9.55472 17.136 10.2852 17.4938 11.2578 17.6162V18.1602C11.2579 18.5742 11.5939 18.9099 12.0078 18.9102C12.4219 18.91 12.7578 18.5742 12.7578 18.1602V17.6143C14.9005 17.3366 16.1092 15.8801 16.1094 14.4678C16.1093 13.8905 15.9756 13.3834 15.7061 12.9551C15.4387 12.5305 15.068 12.2314 14.6719 12.0146C14.1013 11.7027 13.4078 11.5293 12.7578 11.4004L12.7578 7.94434C14.1688 8.17906 14.5671 9.05399 14.626 9.32812C14.7128 9.73272 15.1109 9.9905 15.5156 9.9043C15.9206 9.8176 16.1794 9.41869 16.0928 9.01367C15.9006 8.11697 14.9665 6.69338 12.7578 6.42773V5.83594C12.7578 5.42181 12.4219 5.08608 12.0078 5.08594ZM12.7578 12.9365C13.2322 13.0407 13.6341 13.1562 13.9521 13.3301C14.1836 13.4567 14.3374 13.5967 14.4365 13.7539C14.5334 13.9079 14.6093 14.1287 14.6094 14.4678C14.6091 14.9421 14.1513 15.8539 12.7578 16.0986V12.9365ZM11.2578 11.1094C10.7834 11.0051 10.3816 10.8898 10.0635 10.7158C9.83181 10.589 9.67814 10.4484 9.5791 10.291C9.48231 10.137 9.40625 9.91701 9.40625 9.57812C9.40658 9.10444 9.86517 8.1935 11.2578 7.94824L11.2578 11.1094Z"
    fill="currentColor"
  />
</svg>

<svg xmlns="http://www.w3.org/2000/svg" width="24" height="24" fill="none" data-fui-icon="true" viewBox="0 0 24 24"><path fill="currentColor" d="M12.096 1.25c-5.238 0-8.136 3.176-9.346 6.145V5.227a.75.75 0 0 0-1.5 0V8.73c0 1.045.84 1.905 1.893 1.905h2.35a.75.75 0 0 0 0-1.5h-1.74c.675-2.78 3.156-6.385 8.343-6.385 5.636 0 9.154 4.234 9.154 9.25s-3.518 9.25-9.154 9.25c-4 0-7.182-2.386-8.484-5.382a.75.75 0 1 0-1.375.598c1.533 3.528 5.244 6.284 9.859 6.284 6.553 0 10.654-4.997 10.654-10.75S18.65 1.25 12.096 1.25m-.088 3.836a.75.75 0 0 0-.75.75v.596c-2.141.278-3.351 1.734-3.352 3.146 0 .577.134 1.084.404 1.512.267.425.637.724 1.034.941.57.312 1.264.486 1.914.614v3.453c-.594-.106-.992-.328-1.262-.559a2.2 2.2 0 0 1-.644-.959.751.751 0 0 0-1.426.468 3.7 3.7 0 0 0 1.095 1.63c.534.458 1.264.816 2.237.938v.544a.75.75 0 0 0 1.5 0v-.546c2.143-.277 3.351-1.734 3.351-3.146 0-.578-.133-1.085-.403-1.513a2.75 2.75 0 0 0-1.034-.94c-.57-.312-1.264-.486-1.914-.615V7.944c1.41.235 1.81 1.11 1.868 1.384a.75.75 0 0 0 1.467-.314c-.192-.897-1.126-2.32-3.335-2.586v-.592a.75.75 0 0 0-.75-.75m.75 7.85c.474.105.876.22 1.194.394.232.127.385.267.485.424.096.154.172.375.172.714 0 .474-.458 1.386-1.851 1.63zm-1.5-1.827c-.475-.104-.876-.22-1.194-.393-.232-.127-.386-.268-.485-.425-.097-.154-.173-.374-.173-.713 0-.474.46-1.384 1.852-1.63z"/></svg>
